;FLAVOR:Marlin
;TIME:3599
;Filament used: 1.07068m, 0m
;Layer height: 0.15
;MINX:155.2
;MINY:122.2
;MINZ:0.2
;MAXX:264.8
;MAXY:177.8
;MAXZ:2
;Generated with StratosEngine 1.2.2
T0
M82 ;absolute extrusion mode
;Machine Model: Sigma D25 
;Materials used: T0 PLA  
;Extruders used: T0 0.4  
M141 S40 	;Set chamber temperature 
M140 S60 	;Heat build surface
M104 T0 S205	;Heat extruder 0
M190 S60 	;Wait until bed temperature reached 
M109 T0 S205	;Heat extruder 0 and wait
G21 		;metric values 
G90 		;absolute positioning 
M204 S2500 	;set default acceleration 
M205 X12.5 Y12.5 ;set default jerk 
M107 		;start with the fan off 
G28 X0 Y0 	;move X/Y to min endstops 
G28 Z0 		;move Z to min endstops 
G1 Z5 F200 	;safety Z axis movement

T0
G92 E0 		;set zero the extruded length 
G1 E10 F30
G92 E0 
G4 S2 		;stabilize hotend 
G1 E-0.5 F1000 
G92 E0

G4 P1
G4 P2
G4 P3

M141 S40
G92 E0
;LAYER_COUNT:13
;LAYER:0
M107
M204 S456
M205 X9.38 Y9.38
G1 F600 Z0.5
G0 F6000 X257 Y177.8 Z0.5
M204 S1425
;TYPE:SKIRT
G1 F600 Z0.2
G1 F1050 E0
G1 F1350 X163 Y177.8 E1.17879
G1 X162.211 Y177.76 E1.1887
G1 X161.431 Y177.641 E1.1986
G1 X160.666 Y177.443 E1.20851
G1 X159.926 Y177.169 E1.2184
G1 X159.217 Y176.821 E1.22831
G1 X158.546 Y176.403 E1.23822
G1 X157.922 Y175.92 E1.24812
G1 X157.349 Y175.377 E1.25801
G1 X156.834 Y174.778 E1.26792
G1 X156.383 Y174.13 E1.27782
G1 X155.999 Y173.439 E1.28774
G1 X155.687 Y172.714 E1.29763
G1 X155.45 Y171.961 E1.30753
G1 X155.291 Y171.187 E1.31744
G1 X155.2 Y170 E1.33237
G1 X155.2 Y130 E1.83399
G1 X155.24 Y129.211 E1.84389
G1 X155.359 Y128.431 E1.85379
G1 X155.557 Y127.666 E1.8637
G1 X155.831 Y126.926 E1.87359
G1 X156.179 Y126.217 E1.8835
G1 X156.597 Y125.546 E1.89341
G1 X157.08 Y124.922 E1.90331
G1 X157.623 Y124.349 E1.91321
G1 X158.222 Y123.834 E1.92311
G1 X158.87 Y123.383 E1.93301
G1 X159.561 Y122.999 E1.94293
G1 X160.286 Y122.687 E1.95282
G1 X161.039 Y122.45 E1.96272
G1 X161.813 Y122.291 E1.97263
G1 X163 Y122.2 E1.98756
G1 X257 Y122.2 E3.16636
G1 X257.789 Y122.24 E3.17626
G1 X258.569 Y122.359 E3.18616
G1 X259.334 Y122.557 E3.19607
G1 X260.074 Y122.831 E3.20596
G1 X260.783 Y123.179 E3.21587
G1 X261.454 Y123.597 E3.22578
G1 X262.078 Y124.08 E3.23568
G1 X262.651 Y124.623 E3.24558
G1 X263.166 Y125.222 E3.25548
G1 X263.617 Y125.87 E3.26538
G1 X264.001 Y126.561 E3.2753
G1 X264.313 Y127.286 E3.28519
G1 X264.55 Y128.039 E3.29509
G1 X264.709 Y128.813 E3.305
G1 X264.8 Y130 E3.31993
G1 X264.8 Y170 E3.82155
G1 X264.76 Y170.789 E3.83145
G1 X264.641 Y171.569 E3.84135
G1 X264.443 Y172.334 E3.85126
G1 X264.169 Y173.074 E3.86115
G1 X263.821 Y173.783 E3.87106
G1 X263.403 Y174.454 E3.88097
G1 X262.92 Y175.078 E3.89087
G1 X262.377 Y175.651 E3.90077
G1 X261.778 Y176.166 E3.91067
G1 X261.13 Y176.617 E3.92057
G1 X260.439 Y177.001 E3.93049
G1 X259.714 Y177.313 E3.94039
G1 X258.961 Y177.55 E3.95029
G1 X258.187 Y177.709 E3.96019
G1 X257 Y177.8 E3.97512
M204 S456
G0 F6000 X257 Y177.4
M204 S1425
G1 F1350 X163 Y177.4 E5.15392
G1 X162.232 Y177.36 E5.16356
G1 X161.472 Y177.241 E5.17321
G1 X160.729 Y177.043 E5.18285
G1 X160.01 Y176.769 E5.1925
G1 X159.324 Y176.422 E5.20214
G1 X158.677 Y176.006 E5.21179
G1 X158.077 Y175.525 E5.22143
G1 X157.53 Y174.984 E5.23108
G1 X157.042 Y174.389 E5.24073
G1 X156.619 Y173.747 E5.25037
G1 X156.264 Y173.064 E5.26002
G1 X155.983 Y172.349 E5.26966
G1 X155.777 Y171.607 E5.27931
G1 X155.649 Y170.849 E5.28895
G1 X155.6 Y170 E5.29962
G1 X155.6 Y130 E5.80123
G1 X155.64 Y129.232 E5.81088
G1 X155.759 Y128.472 E5.82052
G1 X155.957 Y127.729 E5.83017
G1 X156.231 Y127.01 E5.83982
G1 X156.578 Y126.324 E5.84946
G1 X156.994 Y125.677 E5.8591
G1 X157.475 Y125.077 E5.86875
G1 X158.016 Y124.53 E5.87839
G1 X158.611 Y124.042 E5.88804
G1 X159.253 Y123.619 E5.89769
G1 X159.936 Y123.264 E5.90734
G1 X160.651 Y122.983 E5.91697
G1 X161.393 Y122.777 E5.92663
G1 X162.151 Y122.649 E5.93627
G1 X163 Y122.6 E5.94693
G1 X257 Y122.6 E7.12573
G1 X257.768 Y122.64 E7.13537
G1 X258.528 Y122.759 E7.14502
G1 X259.271 Y122.957 E7.15466
G1 X259.99 Y123.231 E7.16431
G1 X260.676 Y123.578 E7.17395
G1 X261.323 Y123.994 E7.1836
G1 X261.923 Y124.475 E7.19324
G1 X262.47 Y125.016 E7.20289
G1 X262.958 Y125.611 E7.21254
G1 X263.381 Y126.253 E7.22218
G1 X263.736 Y126.936 E7.23183
G1 X264.017 Y127.651 E7.24147
G1 X264.223 Y128.393 E7.25113
G1 X264.351 Y129.151 E7.26077
G1 X264.4 Y130 E7.27143
G1 X264.4 Y170 E7.77304
G1 X264.36 Y170.768 E7.78269
G1 X264.241 Y171.528 E7.79234
G1 X264.043 Y172.271 E7.80198
G1 X263.769 Y172.99 E7.81163
G1 X263.422 Y173.676 E7.82127
G1 X263.006 Y174.323 E7.83091
G1 X262.525 Y174.923 E7.84056
G1 X261.984 Y175.47 E7.85021
G1 X261.389 Y175.958 E7.85986
G1 X260.747 Y176.381 E7.8695
G1 X260.064 Y176.736 E7.87915
G1 X259.349 Y177.017 E7.88878
G1 X258.607 Y177.223 E7.89844
G1 X257.849 Y177.351 E7.90808
G1 X257 Y177.4 E7.91875
M204 S456
G0 F6000 X257 Y177
M204 S1425
G1 F1350 X163 Y177 E9.09754
G1 X162.253 Y176.96 E9.10692
G1 X161.515 Y176.841 E9.1163
G1 X160.793 Y176.643 E9.12568
G1 X160.097 Y176.37 E9.13506
G1 X159.434 Y176.023 E9.14444
G1 X158.811 Y175.608 E9.15383
G1 X158.237 Y175.129 E9.16321
G1 X157.716 Y174.592 E9.17259
G1 X157.257 Y174.002 E9.18196
G1 X156.862 Y173.366 E9.19135
G1 X156.538 Y172.692 E9.20073
G1 X156.288 Y171.987 E9.21011
G1 X156.114 Y171.259 E9.2195
G1 X156 Y170 E9.23535
G1 X156 Y130 E9.73696
G1 X156.04 Y129.253 E9.74635
G1 X156.159 Y128.515 E9.75572
G1 X156.357 Y127.793 E9.76511
G1 X156.63 Y127.097 E9.77448
G1 X156.977 Y126.434 E9.78387
G1 X157.392 Y125.811 E9.79326
G1 X157.871 Y125.237 E9.80263
G1 X158.408 Y124.716 E9.81201
G1 X158.998 Y124.257 E9.82139
G1 X159.634 Y123.862 E9.83078
G1 X160.308 Y123.538 E9.84015
G1 X161.013 Y123.288 E9.84953
G1 X161.741 Y123.114 E9.85892
G1 X163 Y123 E9.87477
G1 X257 Y123 E11.05357
G1 X257.747 Y123.04 E11.06295
G1 X258.485 Y123.159 E11.07232
G1 X259.207 Y123.357 E11.08171
G1 X259.903 Y123.63 E11.09109
G1 X260.566 Y123.977 E11.10047
G1 X261.189 Y124.392 E11.10986
G1 X261.763 Y124.871 E11.11924
G1 X262.284 Y125.408 E11.12862
G1 X262.743 Y125.998 E11.13799
G1 X263.138 Y126.634 E11.14738
G1 X263.462 Y127.308 E11.15676
G1 X263.712 Y128.013 E11.16614
G1 X263.886 Y128.741 E11.17553
G1 X264 Y130 E11.19138
G1 X264 Y170 E11.69299
G1 X263.96 Y170.747 E11.70237
G1 X263.841 Y171.485 E11.71175
G1 X263.643 Y172.207 E11.72114
G1 X263.37 Y172.903 E11.73051
G1 X263.023 Y173.566 E11.7399
G1 X262.608 Y174.189 E11.74928
G1 X262.129 Y174.763 E11.75866
G1 X261.592 Y175.284 E11.76804
G1 X261.002 Y175.743 E11.77742
G1 X260.366 Y176.138 E11.78681
G1 X259.692 Y176.462 E11.79618
G1 X258.987 Y176.712 E11.80556
G1 X258.259 Y176.886 E11.81495
G1 X257 Y177 E11.8308
M204 S456
G0 F6000 X257 Y176.6
M204 S1425
G1 F1350 X163 Y176.6 E13.0096
G1 X162.275 Y176.56 E13.0187
G1 X161.558 Y176.441 E13.02782
G1 X160.859 Y176.243 E13.03693
G1 X160.186 Y175.97 E13.04604
G1 X159.547 Y175.625 E13.05514
G1 X158.95 Y175.211 E13.06425
G1 X158.402 Y174.735 E13.07336
G1 X157.909 Y174.201 E13.08247
G1 X157.479 Y173.616 E13.09158
G1 X157.115 Y172.987 E13.10069
G1 X156.822 Y172.322 E13.1098
G1 X156.604 Y171.629 E13.11891
G1 X156.464 Y170.917 E13.12801
G1 X156.4 Y170 E13.13954
G1 X156.4 Y130 E13.64115
G1 X156.44 Y129.275 E13.65026
G1 X156.559 Y128.558 E13.65937
G1 X156.757 Y127.859 E13.66848
G1 X157.03 Y127.186 E13.67759
G1 X157.375 Y126.547 E13.6867
G1 X157.789 Y125.95 E13.69581
G1 X158.265 Y125.402 E13.70491
G1 X158.799 Y124.909 E13.71403
G1 X159.384 Y124.479 E13.72313
G1 X160.013 Y124.115 E13.73224
G1 X160.678 Y123.822 E13.74136
G1 X161.371 Y123.604 E13.75047
G1 X162.083 Y123.464 E13.75957
G1 X163 Y123.4 E13.77109
G1 X257 Y123.4 E14.94989
G1 X257.725 Y123.44 E14.959
G1 X258.442 Y123.559 E14.96811
G1 X259.141 Y123.757 E14.97722
G1 X259.814 Y124.03 E14.98633
G1 X260.453 Y124.375 E14.99543
G1 X261.05 Y124.789 E15.00455
G1 X261.598 Y125.265 E15.01365
G1 X262.091 Y125.799 E15.02276
G1 X262.521 Y126.384 E15.03187
G1 X262.885 Y127.013 E15.04098
G1 X263.178 Y127.678 E15.05009
G1 X263.396 Y128.371 E15.0592
G1 X263.536 Y129.083 E15.0683
G1 X263.6 Y130 E15.07983
G1 X263.6 Y170 E15.58145
G1 X263.56 Y170.725 E15.59055
G1 X263.441 Y171.442 E15.59967
G1 X263.243 Y172.141 E15.60878
G1 X262.97 Y172.814 E15.61788
G1 X262.625 Y173.453 E15.62699
G1 X262.211 Y174.05 E15.6361
G1 X261.735 Y174.598 E15.6452
G1 X261.201 Y175.091 E15.65432
G1 X260.616 Y175.521 E15.66342
G1 X259.987 Y175.885 E15.67254
G1 X259.322 Y176.178 E15.68165
G1 X258.629 Y176.396 E15.69076
G1 X257.917 Y176.536 E15.69986
G1 X257 Y176.6 E15.71139
M204 S456
G0 F6000 X257 Y176.2
M204 S1425
G1 F1350 X163 Y176.2 E16.89018
G1 X162.297 Y176.16 E16.89901
G1 X161.603 Y176.041 E16.90784
G1 X160.928 Y175.843 E16.91666
G1 X160.279 Y175.571 E16.92549
G1 X159.665 Y175.226 E16.93432
G1 X159.094 Y174.815 E16.94314
G1 X158.573 Y174.341 E16.95197
G1 X158.109 Y173.811 E16.96081
G1 X157.709 Y173.232 E16.96963
G1 X157.377 Y172.611 E16.97846
G1 X157.117 Y171.957 E16.98729
G1 X156.933 Y171.277 E16.99612
G1 X156.8 Y170 E17.01222
G1 X156.8 Y130 E17.51384
G1 X156.84 Y129.297 E17.52267
G1 X156.959 Y128.603 E17.5315
G1 X157.157 Y127.928 E17.54032
G1 X157.429 Y127.279 E17.54915
G1 X157.774 Y126.665 E17.55798
G1 X158.185 Y126.094 E17.5668
G1 X158.659 Y125.573 E17.57563
G1 X159.189 Y125.109 E17.58447
G1 X159.768 Y124.709 E17.59329
G1 X160.389 Y124.377 E17.60212
G1 X161.043 Y124.117 E17.61095
G1 X161.723 Y123.933 E17.61978
G1 X163 Y123.8 E17.63588
G1 X257 Y123.8 E18.81468
G1 X257.703 Y123.84 E18.82351
G1 X258.397 Y123.959 E18.83234
G1 X259.072 Y124.157 E18.84116
G1 X259.721 Y124.429 E18.84998
G1 X260.335 Y124.774 E18.85882
G1 X260.906 Y125.185 E18.86764
G1 X261.427 Y125.659 E18.87647
G1 X261.891 Y126.189 E18.8853
G1 X262.291 Y126.768 E18.89413
G1 X262.623 Y127.389 E18.90296
G1 X262.883 Y128.043 E18.91179
G1 X263.067 Y128.723 E18.92062
G1 X263.2 Y130 E18.93672
G1 X263.2 Y170 E19.43834
G1 X263.16 Y170.703 E19.44717
G1 X263.041 Y171.397 E19.456
G1 X262.843 Y172.072 E19.46482
G1 X262.571 Y172.721 E19.47364
G1 X262.226 Y173.335 E19.48247
G1 X261.815 Y173.906 E19.4913
G1 X261.341 Y174.427 E19.50013
G1 X260.811 Y174.891 E19.50896
G1 X260.232 Y175.291 E19.51779
G1 X259.611 Y175.623 E19.52662
G1 X258.957 Y175.883 E19.53544
G1 X258.277 Y176.067 E19.54428
G1 X257 Y176.2 E19.56038
M204 S456
G0 F6000 X257 Y175.8
M204 S1425
G1 F1350 X163 Y175.8 E20.73917
G1 X162.32 Y175.76 E20.74772
G1 X161.65 Y175.641 E20.75625
G1 X160.998 Y175.444 E20.76479
G1 X160.374 Y175.172 E20.77333
G1 X159.786 Y174.828 E20.78187
G1 X159.242 Y174.418 E20.79041
G1 X158.751 Y173.947 E20.79895
G1 X158.317 Y173.422 E20.80749
G1 X157.948 Y172.85 E20.81602
G1 X157.649 Y172.238 E20.82457
G1 X157.424 Y171.596 E20.8331
G1 X157.275 Y170.931 E20.84164
G1 X157.2 Y170 E20.85336
G1 X157.2 Y130 E21.35497
G1 X157.24 Y129.32 E21.36351
G1 X157.359 Y128.65 E21.37205
G1 X157.556 Y127.998 E21.38059
G1 X157.828 Y127.374 E21.38912
G1 X158.172 Y126.786 E21.39767
G1 X158.582 Y126.242 E21.40621
G1 X159.053 Y125.751 E21.41474
G1 X159.578 Y125.317 E21.42328
G1 X160.15 Y124.948 E21.43182
G1 X160.762 Y124.649 E21.44036
G1 X161.404 Y124.424 E21.44889
G1 X162.069 Y124.275 E21.45744
G1 X163 Y124.2 E21.46915
G1 X257 Y124.2 E22.64795
G1 X257.68 Y124.24 E22.65649
G1 X258.35 Y124.359 E22.66502
G1 X259.002 Y124.556 E22.67356
G1 X259.626 Y124.828 E22.6821
G1 X260.214 Y125.172 E22.69064
G1 X260.758 Y125.582 E22.69919
G1 X261.249 Y126.053 E22.70772
G1 X261.683 Y126.578 E22.71626
G1 X262.052 Y127.15 E22.7248
G1 X262.351 Y127.762 E22.73334
G1 X262.576 Y128.404 E22.74187
G1 X262.725 Y129.069 E22.75041
G1 X262.8 Y130 E22.76213
G1 X262.8 Y170 E23.26374
G1 X262.76 Y170.68 E23.27228
G1 X262.641 Y171.35 E23.28082
G1 X262.444 Y172.002 E23.28936
G1 X262.172 Y172.626 E23.2979
G1 X261.828 Y173.214 E23.30644
G1 X261.418 Y173.758 E23.31498
G1 X260.947 Y174.249 E23.32351
G1 X260.422 Y174.683 E23.33206
G1 X259.85 Y175.052 E23.34059
G1 X259.238 Y175.351 E23.34913
G1 X258.596 Y175.576 E23.35766
G1 X257.931 Y175.725 E23.36621
G1 X257 Y175.8 E23.37792
M204 S456
G0 F6000 X257 Y175.4
M204 S1425
G1 F1350 X163 Y175.4 E24.55672
G1 X162.344 Y175.36 E24.56496
G1 X161.698 Y175.241 E24.5732
G1 X161.071 Y175.044 E24.58144
G1 X160.473 Y174.772 E24.58968
G1 X159.912 Y174.43 E24.59792
G1 X159.397 Y174.022 E24.60616
G1 X158.935 Y173.555 E24.61439
G1 X158.534 Y173.035 E24.62263
G1 X158.198 Y172.471 E24.63086
G1 X157.934 Y171.869 E24.63911
G1 X157.744 Y171.24 E24.64734
G1 X157.6 Y170 E24.663
G1 X157.6 Y130 E25.16461
G1 X157.64 Y129.344 E25.17286
G1 X157.759 Y128.698 E25.18109
G1 X157.956 Y128.071 E25.18934
G1 X158.228 Y127.473 E25.19757
G1 X158.57 Y126.912 E25.20581
G1 X158.978 Y126.397 E25.21405
G1 X159.445 Y125.935 E25.22229
G1 X159.965 Y125.534 E25.23053
G1 X160.529 Y125.198 E25.23876
G1 X161.131 Y124.934 E25.247
G1 X161.76 Y124.744 E25.25524
G1 X163 Y124.6 E25.2709
G1 X257 Y124.6 E26.44969
G1 X257.656 Y124.64 E26.45793
G1 X258.302 Y124.759 E26.46617
G1 X258.929 Y124.956 E26.47441
G1 X259.527 Y125.228 E26.48265
G1 X260.088 Y125.57 E26.49089
G1 X260.603 Y125.978 E26.49913
G1 X261.065 Y126.445 E26.50737
G1 X261.466 Y126.965 E26.5156
G1 X261.802 Y127.529 E26.52383
G1 X262.066 Y128.131 E26.53208
G1 X262.256 Y128.76 E26.54032
G1 X262.4 Y130 E26.55597
G1 X262.4 Y170 E27.05759
G1 X262.36 Y170.656 E27.06583
G1 X262.241 Y171.302 E27.07407
G1 X262.044 Y171.929 E27.08231
G1 X261.772 Y172.527 E27.09055
G1 X261.43 Y173.088 E27.09879
G1 X261.022 Y173.603 E27.10702
G1 X260.555 Y174.065 E27.11526
G1 X260.035 Y174.466 E27.1235
G1 X259.471 Y174.802 E27.13173
G1 X258.869 Y175.066 E27.13997
G1 X258.24 Y175.256 E27.14821
G1 X257 Y175.4 E27.16387
M204 S456
G0 F6000 X257 Y175
M204 S1425
G1 F1350 X163 Y175 E28.34266
G1 X162.369 Y174.96 E28.35059
G1 X161.748 Y174.841 E28.35852
G1 X161.148 Y174.644 E28.36644
G1 X160.576 Y174.373 E28.37438
G1 X160.044 Y174.033 E28.3823
G1 X159.559 Y173.627 E28.39023
G1 X159.129 Y173.164 E28.39815
G1 X158.76 Y172.65 E28.40609
G1 X158.46 Y172.094 E28.41401
G1 X158.232 Y171.505 E28.42193
G1 X158.08 Y170.891 E28.42986
G1 X158 Y170 E28.44108
G1 X158 Y130 E28.94269
G1 X158.04 Y129.369 E28.95062
G1 X158.159 Y128.748 E28.95855
G1 X158.356 Y128.148 E28.96647
G1 X158.627 Y127.576 E28.97441
G1 X158.967 Y127.044 E28.98233
G1 X159.373 Y126.559 E28.99026
G1 X159.836 Y126.129 E28.99818
G1 X160.35 Y125.76 E29.00612
G1 X160.906 Y125.46 E29.01404
G1 X161.495 Y125.232 E29.02196
G1 X162.109 Y125.08 E29.02989
G1 X163 Y125 E29.04111
G1 X257 Y125 E30.21991
G1 X257.631 Y125.04 E30.22784
G1 X258.252 Y125.159 E30.23576
G1 X258.852 Y125.356 E30.24368
G1 X259.424 Y125.627 E30.25162
G1 X259.956 Y125.967 E30.25954
G1 X260.441 Y126.373 E30.26747
G1 X260.871 Y126.836 E30.27539
G1 X261.24 Y127.35 E30.28333
G1 X261.54 Y127.906 E30.29125
G1 X261.768 Y128.495 E30.29917
G1 X261.92 Y129.109 E30.3071
G1 X262 Y130 E30.31832
G1 X262 Y170 E30.81994
G1 X261.96 Y170.631 E30.82787
G1 X261.841 Y171.252 E30.8358
G1 X261.644 Y171.852 E30.84372
G1 X261.373 Y172.424 E30.85165
G1 X261.033 Y172.956 E30.85957
G1 X260.627 Y173.441 E30.8675
G1 X260.164 Y173.871 E30.87543
G1 X259.65 Y174.24 E30.88336
G1 X259.094 Y174.54 E30.89128
G1 X258.505 Y174.768 E30.8992
G1 X257.891 Y174.92 E30.90714
G1 X257 Y175 E30.91835
M204 S456
G0 F6000 X257 Y174.6
M204 S1425
G1 F1350 X163 Y174.6 E32.09715
G1 X162.395 Y174.56 E32.10475
G1 X161.801 Y174.441 E32.11235
G1 X161.227 Y174.245 E32.11996
G1 X160.684 Y173.974 E32.12757
G1 X160.181 Y173.635 E32.13517
G1 X159.728 Y173.233 E32.14277
G1 X159.331 Y172.775 E32.15037
G1 X158.998 Y172.268 E32.15798
G1 X158.734 Y171.722 E32.16558
G1 X158.545 Y171.146 E32.17318
G1 X158.4 Y170 E32.18767
G1 X158.4 Y130 E32.68928
G1 X158.44 Y129.395 E32.69689
G1 X158.559 Y128.801 E32.70448
G1 X158.755 Y128.227 E32.71209
G1 X159.026 Y127.684 E32.7197
G1 X159.365 Y127.181 E32.72731
G1 X159.767 Y126.728 E32.7349
G1 X160.225 Y126.331 E32.7425
G1 X160.732 Y125.998 E32.75011
G1 X161.278 Y125.734 E32.75772
G1 X161.854 Y125.545 E32.76532
G1 X163 Y125.4 E32.7798
G1 X257 Y125.4 E33.9586
G1 X257.605 Y125.44 E33.9662
G1 X258.199 Y125.559 E33.9738
G1 X258.773 Y125.755 E33.98141
G1 X259.316 Y126.026 E33.98902
G1 X259.819 Y126.365 E33.99662
G1 X260.272 Y126.767 E34.00422
